!!!SOCIAL_FUNCTION:	songs of war
!!!PDT:	1918

Specific Region: Dakotas, Minnesota, Montana, Nebraska
!!!REG: Dakotas and Montana
!!!LING_GROUP: Siouan
!!!LANG: Tone
!!!OTL@ENG: Song of the Fox Society (a)
!!!ONM: No. 114
**kern
*Imale
*clefF4
*k[f#c#g#d#]
*M3/4
*MM88
4e
4e
8e
8B
=1||
*M2/4
4e
4e
=2
8e
8f#
4e
=3
[2B
=4
2B]
=5||
*M3/4
4c#
4c#
8c#
8B
=6||
*M2/4
4c#
4c#
=7
8c#
8d#
4c#
=8
[2B
=9
2B]
=10
4B
4B
=11
8B
8c#
4B
=12
2G#
=13
2E
=14
4F
4F
=15
8F
8G
4F
=16
[2E
=17
2E]
=18
4E
4E
=19
8E
8F#
4E
=20
[2BB
=21
2BB]
=22||
*M3/4
[2BB
8BB]
8BB
=23||
*M2/4
2BB
=24
2BB
=25
*MM96
8BB
[8B
4B]
=26||
*M3/4
8B
8B
8B
8A#
4B
=27
(8c#
8B)
8B
[8B
4B]
=28||
*M2/4
4B
4B
=29||
*M3/4
8G#
8B
4.B
8B
=30||
*M2/4
2B
=31||
*M3/4
8c#
[8B
4B]
(12c#
12B)
12B
=32||
*M2/4
4.A
8G#
=33
2E
=34
8F
[8F
4F]
=35||
*M3/4
4.F
8F
(12G
12F)
12F
=36
2E
4E
=37||
*M2/4
*MM88
4E
4E
=38
8E
8F#
4E
=39
2BB
=40
2BB
=41
2BB
=42
4.BB
8BB
=43
2BB
=44
4BB
4r
==
*-
!!!CNT: Native American -- Sioux
!!!MRD: 1911/07//-1914///
!!!OCL: Frances Densmore
!!!YOR1: Teton Sioux Music, Bulletin 61,
!!!YOR2: Bureau of American Ethnology, Smithsonian Institution
!!!PPR: Government Printing Office
!!!PPP: Washington, D.C.
!!!PDT: 1918///
!!!ENC: Craig Stuart Sapp
!!!END: 2002/03/25/
!!!EEV: 2002/03/31/
!!!AGN: War Song
!!!MPN@@SIO: Mato'-aki'chita
!!!MPN@ENG: Bear Soldier
!!!TXO: Teton Sioux
!!!MLC: Standing Rock Reservation, South Dakota, United States of America
!!!ARL: 45.9/-100.7#
!!!catalog: Catalogue No. 677
!!!PPG: 316
!!!EFL: 114/245
!!!VTS: 186476125
